src/images/d9.svg

<svg width="30" height="30" viewBox="0 0 30 30" fill="none" xmlns="http://www.w3.org/2000/svg">
<rect width="30" height="30" rx="15" fill="#F9F9F9"/>
<path fill-rule="evenodd" clip-rule="evenodd" d="M15 15.9429L17.357 18.2999L18.4177 17.2393L16.0607 14.8822L18.2999 12.643L17.2393 11.5823L15 13.8216L12.7609 11.5824L11.7002 12.6431L13.9393 14.8822L11.5824 17.2391L12.6431 18.2998L15 15.9429Z" fill="black"/>
</svg>

<svg width="30" height="30" fill="none" xmlns="http://www.w3.org/2000/svg"><rect width="30" height="30" rx="15" fill="#F9F9F9"/><path fill-rule="evenodd" clip-rule="evenodd" d="m15 15.943 2.357 2.357 1.06-1.06-2.356-2.358 2.239-2.239-1.06-1.06L15 13.821l-2.24-2.24-1.06 1.061 2.24 2.24-2.358 2.356 1.061 1.06L15 15.944z" fill="#000"/></svg>
